X:791
T:Women of Ireland
C:By SEAN O'RIADA
M:12/8
L:1/8
Q:1/4=77
K:G
"Moderately"z12|z6z3(A2 B||c g2- g6 a2 g|f A2- A6) z(AB|
c3- cBc A3- A2 (3B/A/G/|A6- A2) z(A2 B|c g2- g6 a2 g|f A2- A6) z(AB|
c3- cBc d3- d2 c|B/d/ G2- G6) z3||z12|\
M:6/8
z6|\
M:12/8
"2"z12|\
M:6/8
z6|\
M:12/8
"3"z12||"7"z12|
z6z3(G3||g6- g3- gab|\
M:6/8
a2 g- g(3e/g/e/d|\
M:12/8
e6- e3) (dcB|
A g2- g6) (a2 g|\
M:6/8
f d2- d3)|\
M:12/8
(e A2- A6- AGF|G6- G3) (G3||
g6- g3- gab|\
M:6/8
a2 g- g(3e/g/e/d|\
M:12/8
e6- e3) (dcB|A g2- g6) (a2 g|
M:6/8
f d2- d3)|\
M:12/8
e A2- A6- AGF|G12|g12-|g12|]
